X:61
T:Hillgrove's Waltz
C:Ed Yother
C:http://edyother.com
M:3/4
L:1/8
R:Waltz
K:Dmin
A,C | D2 DC DE | DC A,C DF | ({F}G2) GA GD | F2 G2 A2 |
 dc AG  (3ABc | GF DC DE | FA  GF  DC |[1 D2 D2 :|[2 D2 A2 c2 |]
|: ({c}d2) dA cd | AG FC DF | ({F}G2) GA GD | F2 F2 (3(EFE) |
 D2 DE FG | Ad cA GF | DC  DF  EC |[1 D2 A2 c2 :|[2  D4 |]

%%newpage
%%scale .75
%%staffsep 30

